icon-themes/sifr_svg/sfx2/res/symphony/sidebar-gallery-small.svg

<svg viewBox="0 0 16 16" xmlns="http://www.w3.org/2000/svg"><path d="m0 2v9h3v-2h-1v-5h8v1h2v-3zm4 4v9h12v-9zm2 2h8v5h-8zm7 1-2 2-1-1-3 1v1h6v-1z" fill="#555753"/></svg>

<svg xmlns="http://www.w3.org/2000/svg" viewBox="0 0 16 16">
  <path
     style="fill:#555753"
     d="M 0 2 L 0 11 L 3 11 L 3 9 L 2 9 L 2 4 L 10 4 L 10 5 L 12 5 L 12 2 L 0 2 z M 4 6 L 4 15 L 16 15 L 16 6 L 4 6 z M 6 8 L 14 8 L 14 13 L 6 13 L 6 8 z M 13 9 L 11 11 L 10 10 L 7 11 L 7 12 L 13 12 L 13 11 L 13 9 z "
     />
</svg>
